newspaper-variant-multiple.svg

<svg fill="currentColor" viewBox="0 0 24 24"><path d="M4 7v12h15v2H4c-2 0-2-2-2-2V7zm17.3-4H7.7C6.76 3 6 3.7 6 4.55v10.9c0 .86.76 1.55 1.7 1.55h13.6c.94 0 1.7-.69 1.7-1.55V4.55C23 3.7 22.24 3 21.3 3M8 5h5v6H8zm13 10H8v-2h13zm0-4h-6V9h6zm0-4h-6V5h6z"/></svg>

<svg  viewBox="0 0 24 24" fill="currentColor"><path  d="M4 7V19H19V21H4C2 21 2 19 2 19V7H4M21.3 3H7.7C6.76 3 6 3.7 6 4.55V15.45C6 16.31 6.76 17 7.7 17H21.3C22.24 17 23 16.31 23 15.45V4.55C23 3.7 22.24 3 21.3 3M8 5H13V11H8V5M21 15H8V13H21V15M21 11H15V9H21V11M21 7H15V5H21V7Z"/></svg>
